X:455
T:The Blackbird
R:Hornpipe
D:De Dannan 1
S:Henrik Norbeck's abc files
Z:Transcription:Henrik Norbeck(?), chords:Mike Long
M:4/4
L:1/8
K:G
DE|\
"D"F2FA "G"GFD2|"D"de (3(fed) dcAF|"C"G2GF "(G)"GFDE|"D"F2AF "C"G2AG|\
"D"F2FA "G"GFD2|"D"de (3(fed) dcAG|
"D"AdcA "C"GcAG|"D"FDD2 D2:|\
|:de|\
"D"f2 (3(def) "G"gfe^c|"D"d^cde "A"fdA2|"D"f2 (3(def) "G"gfed|
"D"fagf "C"g2 (3(efg)|\
"D"af"A"ge "D"fde^c|"D"~d2de "A"fdAG|"D"AdcA "C"GcAG|"D"FDD2 D2:|
